**kern	**kern
*part1	*part1
*staff2	*staff1
*I"Piano	*
*clefF4	*clefG2
*k[]	*k[]
=1	=1
8AA 8C 8E	8A 8e
4E	4e^
8EL 8A	8cL 8e
8E 8B	8d 8e
8EJ 8G#X	8BJ 8e
=	=
4.AA 4.E	4.c
8AAL 8F	8AL 8d
8AA 8D	8A 8B
8AAJ 8E	8AJ 8c
=	=
2AA 2F	2A 2d
4AA 4E	4A 4c
=	=
4.EE 4.E	4.c^ 4.e
8EEL 8D 8E	8BL 8e
8EE 8C 8E	8A 8e
8EEJ 8BB 8E	8G#XJ 8e
=	=
8AA 8C 8E	8A 8e
4E	4e^
8EL 8c	8eL
8E 8A	8c 8e
8EJ 8G#X	8BJ 8e
=	=
*^	*
4.Gn	2.C	4.B-X 4.e
8AL	.	8cL 8f
8F	.	8A 8d
8GJ	.	8B-J 8e
*v	*v	*
=	=
([4C 4A	([4c 4f
8C]) 8G	8c]) 8e
8CL 8G	8dL 8e
8C 8G	8c 8e
8CJ 8G	8BnJ 8e
=	=
*-	*-
!!!system-decoration: {(s1,s2)}
